X: 10
T: The Cock And The Hen
R: slip jig
M: 9/8
L: 1/8
K: Amin
|:gec cde f3|gec cde fdB|gec cde f3|e2c e2A cAG:||
|:AcA AGA f3|AcA AGA cAG|AcA AGA f3|e2c e2A cAG:||


Tune 93	Setting 29880

